flaticon/pins-and-locations/map-7.svg

<svg xmlns="http://www.w3.org/2000/svg" width="32" height="32" viewBox="0 0 24 24">
    <path d="M 21.960938 16.679688 C 21.921875 16.519531 21.761719 16.398438 21.601562 16.398438 L 19.160156 16.398438 L 18.320312 13.878906 C 18.28125 13.71875 18.121094 13.601562 17.960938 13.601562 C 17.800781 13.601562 17.640625 13.71875 17.601562 13.878906 L 16.800781 16.398438 L 14.398438 16.398438 C 14.238281 16.398438 14.078125 16.519531 14.039062 16.679688 C 13.960938 16.839844 14.039062 17 14.160156 17.121094 L 16.078125 18.601562 L 15.238281 21.078125 C 15.160156 21.238281 15.238281 21.398438 15.359375 21.519531 C 15.441406 21.558594 15.519531 21.601562 15.601562 21.601562 C 15.679688 21.601562 15.761719 21.601562 15.800781 21.519531 L 18 20.160156 L 20.199219 21.558594 C 20.320312 21.640625 20.519531 21.640625 20.640625 21.519531 C 20.761719 21.398438 20.800781 21.238281 20.761719 21.078125 L 19.960938 18.601562 L 21.839844 17.121094 C 21.960938 17.039062 22 16.839844 21.960938 16.679688 Z M 19.238281 18.121094 C 19.121094 18.238281 19.078125 18.398438 19.121094 18.558594 L 19.679688 20.28125 L 18.238281 19.359375 C 18.078125 19.28125 17.921875 19.28125 17.800781 19.359375 L 16.320312 20.28125 L 16.878906 18.558594 C 16.960938 18.398438 16.878906 18.238281 16.761719 18.121094 L 15.558594 17.199219 L 17.078125 17.199219 C 17.28125 17.199219 17.441406 17.078125 17.480469 16.921875 L 18 15.28125 L 18.558594 16.921875 C 18.601562 17.078125 18.761719 17.199219 18.921875 17.199219 L 20.441406 17.199219 Z M 19.238281 18.121094"/>
    <path d="M 22.398438 13.917969 L 22.398438 0.398438 C 22.398438 0.160156 22.238281 0 22 0 L 0.398438 0 C 0.160156 0 0 0.160156 0 0.398438 L 0 22 C 0 22.238281 0.160156 22.398438 0.398438 22.398438 L 13.917969 22.398438 C 14.988281 23.394531 16.421875 24 18 24 C 21.320312 24 24 21.320312 24 18 C 24 16.421875 23.394531 14.988281 22.398438 13.917969 Z M 12.003906 18.230469 C 12.003906 18.238281 12.003906 18.25 12.007812 18.257812 C 12.058594 19.511719 12.492188 20.664062 13.195312 21.601562 L 3.921875 21.601562 L 15.238281 10.28125 L 17.0625 12.074219 C 14.191406 12.519531 12 15 12 18 C 12 18.078125 12 18.152344 12.003906 18.230469 Z M 21.601562 10.253906 L 18.398438 7.121094 L 21.601562 3.921875 Z M 8.800781 0.800781 L 18.480469 0.800781 L 8.800781 10.480469 Z M 4.800781 0.800781 L 4.800781 4.800781 L 0.800781 4.800781 L 0.800781 0.800781 Z M 0.800781 8.800781 L 4.800781 8.800781 L 4.800781 14.480469 L 0.800781 18.480469 Z M 0.800781 21.601562 L 0.800781 19.601562 L 5.480469 14.921875 C 5.558594 14.839844 5.601562 14.761719 5.601562 14.640625 L 5.601562 8.398438 C 5.601562 8.160156 5.441406 8 5.199219 8 L 0.800781 8 L 0.800781 5.601562 L 5.199219 5.601562 C 5.441406 5.601562 5.601562 5.441406 5.601562 5.199219 L 5.601562 0.800781 L 8 0.800781 L 8 11.441406 C 8 11.601562 8.078125 11.761719 8.238281 11.800781 C 8.398438 11.878906 8.558594 11.839844 8.679688 11.71875 L 19.601562 0.800781 L 21.601562 0.800781 L 21.601562 2.761719 L 17.480469 6.839844 C 17.398438 6.921875 17.359375 7 17.359375 7.121094 C 17.359375 7.238281 17.398438 7.320312 17.480469 7.398438 L 21.558594 11.359375 L 21.558594 13.167969 C 20.628906 12.480469 19.492188 12.058594 18.257812 12.003906 C 18.25 12.003906 18.238281 12.003906 18.230469 12.003906 C 18.1875 12.003906 18.148438 12.003906 18.109375 12 C 18.097656 12 18.089844 12 18.078125 12 L 15.480469 9.441406 C 15.320312 9.28125 15.078125 9.28125 14.921875 9.441406 L 2.761719 21.601562 Z M 18 23.199219 C 16.570312 23.199219 15.277344 22.628906 14.339844 21.699219 C 13.382812 20.734375 12.835938 19.472656 12.800781 18.132812 C 12.800781 18.085938 12.800781 18.042969 12.800781 18 C 12.800781 15.121094 15.121094 12.800781 18 12.800781 C 18.042969 12.800781 18.085938 12.800781 18.132812 12.800781 C 19.472656 12.835938 20.734375 13.382812 21.699219 14.339844 C 22.628906 15.277344 23.199219 16.570312 23.199219 18 C 23.199219 20.878906 20.878906 23.199219 18 23.199219 Z M 18 23.199219"/>
</svg>

<svg xmlns="http://www.w3.org/2000/svg" width="32" height="32" viewBox="0 0 24 24">
    <path d="M21.96 16.68a.383.383 0 0 0-.358-.282H19.16l-.84-2.52a.38.38 0 0 0-.36-.276.38.38 0 0 0-.358.277l-.801 2.52h-2.403c-.16 0-.32.12-.359.28-.078.16 0 .321.121.442l1.918 1.48-.84 2.477c-.078.16 0 .32.121.442.082.039.16.082.243.082.078 0 .16 0 .199-.082L18 20.16l2.2 1.399c.12.082.32.082.44-.04.122-.12.16-.28.122-.44l-.801-2.477 1.879-1.48c.12-.083.16-.282.12-.442zm-2.722 1.441c-.117.117-.16.277-.117.438l.559 1.722-1.442-.922c-.16-.078-.316-.078-.437 0l-1.48.922.558-1.722c.082-.16 0-.32-.117-.438l-1.203-.922h1.52c.202 0 .362-.12.401-.277l.52-1.64.559 1.64a.393.393 0 0 0 .363.277h1.52zm0 0"/>
    <path d="M22.398 13.918V.398C22.398.16 22.238 0 22 0H.398C.16 0 0 .16 0 .398V22c0 .238.16.398.398.398h13.52A5.967 5.967 0 0 0 18 24c3.32 0 6-2.68 6-6a5.967 5.967 0 0 0-1.602-4.082zM12.004 18.23c0 .008 0 .02.004.028a5.958 5.958 0 0 0 1.187 3.344H3.922l11.316-11.32 1.825 1.792a5.99 5.99 0 0 0-5.06 6.156zm9.598-7.976L18.398 7.12l3.204-3.2zM8.8.8h9.68L8.8 10.48zm-4 0v4h-4v-4zm-4 8h4v5.68l-4 4zm0 12.8v-2l4.68-4.68a.375.375 0 0 0 .12-.28V8.398C5.602 8.16 5.442 8 5.2 8H.801V5.602h4.398c.242 0 .403-.16.403-.403V.801H8v10.64c0 .16.078.32.238.36.16.078.32.039.442-.082L19.602.8h2v1.96L17.48 6.84a.361.361 0 0 0-.12.281c0 .117.038.2.12.277l4.079 3.961v1.809a5.978 5.978 0 0 0-3.301-1.164h-.028c-.043 0-.082 0-.12-.004h-.032L15.48 9.441a.385.385 0 0 0-.558 0l-12.16 12.16zM18 23.2c-1.43 0-2.723-.57-3.66-1.5a5.241 5.241 0 0 1-1.54-3.566V18a5.19 5.19 0 0 1 5.2-5.2h.133a5.241 5.241 0 0 1 3.566 1.54c.93.937 1.5 2.23 1.5 3.66A5.19 5.19 0 0 1 18 23.2zm0 0"/>
</svg>
